X: 3
T: Eunyssagh Vona
Z: JACKB
S: https://thesession.org/tunes/13105#setting28246
R: reel
M: 4/4
L: 1/8
K: Gmaj
|: D2 | G2 GA B2 AG | A3B c2 BA | G3B d2 BG | FA D2 FA D2 |
G2 GA B2 AG | AGAB c2 BA | BdBG (3ABc AF | G2 GF G2 :|
|: Bc | d2 dc Bc d2 | c2 cB AB c2 | B3A GABG | AGFE DEFD |
B3A GA B2 | c2 cB ABcA | (3Bcd BG (3ABc AF | G2 GF G2 :|
